X: 103
T: 103. Nun ruhen alle W\"alder
N: Derived from chor103.krn
C: Johann Sebastian Bach
%%abc-version 2.0
%%abcx-abcm2ps-target-version 5.9.1 (29 Sep 2008)
%%abc-creator hum2abc beta
%%abcx-conversion-date 2019/03/11 17:28:18
%%abc-edited-by Craig Stuart Sapp
%%humdrum-veritas 1618872072
%%humdrum-veritas-data 323742391
%%
%%barnumbers 0
L: 1/4
M: C
%%staves [1 2 3 4]
V: 1 clef=treble
V: 2 clef=treble
V: 3 clef=treble-8
V: 4 clef=bass
K: Bb
[V:1] d [I:setbarnb 1]| 
[V:2] B | 
[V:3] f | 
[V:4] B,, | 
[V:1] Bcd/e/f | 
[V:2] GABF | 
[V:3] eefc | 
[V:4] E,/D,/C,B,,A,, | 
[V:1] e2!fermata!dd/e/ | 
[V:2] GF!fermata!FF/E/ | 
[V:3] Bc!fermata!BB | 
[V:4] G,,A,,!fermata!B,,B,,/C,/ | 
[V:1] ffcd | 
[V:2] D/E/F/G/AA | 
[V:3] BBff | 
[V:4] D,/C,/D,/E,/F,D, | 
[V:1] B2!fermata!cF | 
[V:2] G2!fermata!CD | 
[V:3] f=e!fermata!AA | 
[V:4] G,2!fermata!F,D, | 
[V:1] Bcdd/e/ | 
[V:2] DFFF | 
[V:3] BABB | 
[V:4] G,F,/_E,/ D,/C,/B,, | 
[V:1] !fermata!c3d | 
[V:2] !fermata!F3A | 
[V:3] !fermata!A3d | 
[V:4] !fermata!F,3^F, | 
[V:1] Bcd/e/f | 
[V:2] GFFG | 
[V:3] dcB/c/d | 
[V:4] G,A,B,=B, | 
[V:1] e2!fermata!dd/e/ | 
[V:2] G2!fermata!GF | 
[V:3] dc!fermata!=BB | 
[V:4] CC,!fermata!G,B, | 
[V:1] ffcd | 
[V:2] F/G/ A/B/ c/B/ A/G/ | 
[V:3] c/B/ A/G/ F/G/A | 
[V:4] A,/G,/ F,/G,/A,F, | 
[V:1] B2!fermata!AF | 
[V:2] FG!fermata!FC | 
[V:3] dc!fermata!cA | 
[V:4] D,=E,!fermata!F,_E, | 
[V:1] Bcde | 
[V:2] FG/A/BA/G/ | 
[V:3] BEF/G/A | 
[V:4] D,C,B,,C, | 
[V:1] dc!fermata!B |]  
[V:2] FF/E/!fermata!D |]  
[V:3] BA!fermata!F |]  
[V:4] D,/E,/F,!fermata!B,, |]  



